images/categories-furniture.svg

<svg fill="none" height="76" viewBox="0 0 76 76" width="76" xmlns="http://www.w3.org/2000/svg"><circle cx="38" cy="38" fill="#e4e4e4" r="38"/><path d="m52.2712 31.4237v-7.548c0-4.339-3.0283-5.8757-5.8757-5.8757h-16.904c-2.8474 0-5.8757 1.5367-5.8757 5.8757v7.548c-2.0791.5424-3.6158 2.3955-3.6158 4.6554v12.113c0 3.5706 2.3955 4.9717 4.7458 5.1073v3.0735c0 .9039.7231 1.6271 1.6271 1.6271h1.6723c.904 0 1.6271-.7232 1.6271-1.6271v-3.0735h16.5876v3.0735c0 .9039.7231 1.6271 1.6271 1.6271h1.6723c.904 0 1.6271-.7232 1.6271-1.6271v-3.0735c3.4803-.1808 4.7458-2.7118 4.7458-5.1073v-12.1582c-.0904-2.2147-1.6271-4.113-3.661-4.6102zm-27.0283-7.548c0-3.7062 2.6667-4.2938 4.2486-4.2938h16.904c1.5819 0 4.2486.5424 4.2486 4.2486v7.4124c-2.4407.226-4.3842 2.2599-4.3842 4.791v1.1299h-16.6328v-1.1299c0-2.5311-1.9435-4.565-4.3842-4.791zm20.9718 14.9153v5.6045h-16.5876v-5.6045zm-18.1695 17.5819h-1.6723v-3.0735h1.6723zm21.4689 0h-1.6723v-3.0735h1.6723zm4.791-8.1808h-.0452c0 1.5819-.5876 3.5254-3.5254 3.5254h-1.2204-1.6723-19.7966-1.6723-1.2204c-1.5819 0-3.5254-.5876-3.5254-3.5254v-12.1582c0-1.7627 1.4463-3.209 3.2091-3.209 1.7627 0 3.209 1.4463 3.209 3.209v9.1751c0 .452.3616.8136.8136.8136h18.2146c.452 0 .8136-.3616.8136-.8136v-9.1751c0-1.7627 1.4463-3.209 3.209-3.209 1.7628 0 3.2091 1.4463 3.2091 3.209z" fill="#000"/></svg>

<svg width="76" height="76" viewBox="0 0 76 76" fill="none" xmlns="http://www.w3.org/2000/svg">
<circle cx="38" cy="38" r="38" fill="#E4E4E4"/>
<path d="M52.2712 31.4237V23.8757C52.2712 19.5367 49.2429 18 46.3955 18H29.4915C26.6441 18 23.6158 19.5367 23.6158 23.8757V31.4237C21.5367 31.9661 20 33.8192 20 36.0791V48.1921C20 51.7627 22.3955 53.1638 24.7458 53.2994V56.3729C24.7458 57.2768 25.4689 58 26.3729 58H28.0452C28.9492 58 29.6723 57.2768 29.6723 56.3729V53.2994H46.2599V56.3729C46.2599 57.2768 46.983 58 47.887 58H49.5593C50.4633 58 51.1864 57.2768 51.1864 56.3729V53.2994C54.6667 53.1186 55.9322 50.5876 55.9322 48.1921V36.0339C55.8418 33.8192 54.3051 31.9209 52.2712 31.4237ZM25.2429 23.8757C25.2429 20.1695 27.9096 19.5819 29.4915 19.5819H46.3955C47.9774 19.5819 50.6441 20.1243 50.6441 23.8305V31.2429C48.2034 31.4689 46.2599 33.5028 46.2599 36.0339V37.1638H29.6271V36.0339C29.6271 33.5028 27.6836 31.4689 25.2429 31.2429V23.8757ZM46.2147 38.791V44.3955H29.6271V38.791H46.2147ZM28.0452 56.3729H26.3729V53.2994H28.0452V56.3729ZM49.5141 56.3729H47.8418V53.2994H49.5141V56.3729ZM54.3051 48.1921H54.2599C54.2599 49.774 53.6723 51.7175 50.7345 51.7175H49.5141H47.8418H28.0452H26.3729H25.1525C23.5706 51.7175 21.6271 51.1299 21.6271 48.1921V36.0339C21.6271 34.2712 23.0734 32.8249 24.8362 32.8249C26.5989 32.8249 28.0452 34.2712 28.0452 36.0339V45.209C28.0452 45.661 28.4068 46.0226 28.8588 46.0226H47.0734C47.5254 46.0226 47.887 45.661 47.887 45.209V36.0339C47.887 34.2712 49.3333 32.8249 51.096 32.8249C52.8588 32.8249 54.3051 34.2712 54.3051 36.0339V48.1921Z" fill="black"/>
</svg>
